report_00007_2020-12-11T15:55:29.892Z/server-response-time/comparison/line/6_vs_7.svg

<svg width="640" height="500" xmlns="http://www.w3.org/2000/svg" xmlns:xlink="http://www.w3.org/1999/xlink"><path fill="#fff" d="M0 0h640v500H0z"/><defs><path id="d" stroke-width=".222" stroke="currentColor" d="M-1-1h2v2h-2z"/><path id="b" stroke-width=".222" stroke="currentColor" d="M0-1.33l-1.33 2h2.66z"/><path id="f" stroke-width=".222" stroke="currentColor" d="M0 1.33L1.265.411.782-1.067l-1.564-.009-.483 1.487z"/><use xlink:href="#b" id="c" stroke="currentColor" transform="rotate(180)"/><use xlink:href="#d" id="e" stroke="currentColor" transform="rotate(45)"/><circle id="a" stroke-width=".222" stroke="currentColor" cx="0" cy="0" r="1"/></defs><g fill="none" color="#000" stroke="currentColor"><path stroke="#000" d="M53.9 381.2h9m552.1 0h-9"/><text transform="translate(45.6 385.1)" stroke="none" fill="#000" font-family="Arial" font-size="12" text-anchor="end"><tspan>1.4</tspan></text></g><g fill="none" color="#000" stroke="currentColor"><path stroke="#000" d="M53.9 323h9m552.1 0h-9"/><text transform="translate(45.6 326.9)" stroke="none" fill="#000" font-family="Arial" font-size="12" text-anchor="end"><tspan>1.6</tspan></text></g><g fill="none" color="#000" stroke="currentColor"><path stroke="#000" d="M53.9 264.9h9m552.1 0h-9"/><text transform="translate(45.6 268.8)" stroke="none" fill="#000" font-family="Arial" font-size="12" text-anchor="end"><tspan>1.8</tspan></text></g><g fill="none" color="#000" stroke="currentColor"><path stroke="#000" d="M53.9 206.8h9m552.1 0h-9"/><text transform="translate(45.6 210.7)" stroke="none" fill="#000" font-family="Arial" font-size="12" text-anchor="end"><tspan>2</tspan></text></g><g fill="none" color="#000" stroke="currentColor"><path stroke="#000" d="M53.9 148.6h9m552.1 0h-9"/><text transform="translate(45.6 152.5)" stroke="none" fill="#000" font-family="Arial" font-size="12" text-anchor="end"><tspan>2.2</tspan></text></g><g fill="none" color="#000" stroke="currentColor"><path stroke="#000" d="M53.9 90.5h9m552.1 0h-9"/><text transform="translate(45.6 94.4)" stroke="none" fill="#000" font-family="Arial" font-size="12" text-anchor="end"><tspan>2.4</tspan></text></g><g fill="none" color="#000" stroke="currentColor"><path stroke="#000" d="M53.9 32.4h9m552.1 0h-9"/><text transform="translate(45.6 36.3)" stroke="none" fill="#000" font-family="Arial" font-size="12" text-anchor="end"><tspan>2.6</tspan></text></g><g fill="none" color="#000" stroke="currentColor"><path stroke="#000" d="M53.9 428v-9m0-400.9v9"/><text transform="translate(53.9 449.9)" stroke="none" fill="#000" font-family="Arial" font-size="12" text-anchor="middle"><tspan>0</tspan></text></g><g fill="none" color="#000" stroke="currentColor"><path stroke="#000" d="M110.6 428v-9m0-400.9v9"/><text transform="translate(110.6 449.9)" stroke="none" fill="#000" font-family="Arial" font-size="12" text-anchor="middle"><tspan>10</tspan></text></g><g fill="none" color="#000" stroke="currentColor"><path stroke="#000" d="M167.3 428v-9m0-400.9v9"/><text transform="translate(167.3 449.9)" stroke="none" fill="#000" font-family="Arial" font-size="12" text-anchor="middle"><tspan>20</tspan></text></g><g fill="none" color="#000" stroke="currentColor"><path stroke="#000" d="M223.9 428v-9m0-400.9v9"/><text transform="translate(223.9 449.9)" stroke="none" fill="#000" font-family="Arial" font-size="12" text-anchor="middle"><tspan>30</tspan></text></g><g fill="none" color="#000" stroke="currentColor"><path stroke="#000" d="M280.6 428v-9m0-400.9v9"/><text transform="translate(280.6 449.9)" stroke="none" fill="#000" font-family="Arial" font-size="12" text-anchor="middle"><tspan>40</tspan></text></g><g fill="none" color="#000" stroke="currentColor"><path stroke="#000" d="M337.3 428v-9m0-400.9v9"/><text transform="translate(337.3 449.9)" stroke="none" fill="#000" font-family="Arial" font-size="12" text-anchor="middle"><tspan>50</tspan></text></g><g fill="none" color="#000" stroke="currentColor"><path stroke="#000" d="M394 428v-9m0-400.9v9"/><text transform="translate(394 449.9)" stroke="none" fill="#000" font-family="Arial" font-size="12" text-anchor="middle"><tspan>60</tspan></text></g><g fill="none" color="#000" stroke="currentColor"><path stroke="#000" d="M450.6 428v-9m0-400.9v9"/><text transform="translate(450.6 449.9)" stroke="none" fill="#000" font-family="Arial" font-size="12" text-anchor="middle"><tspan>70</tspan></text></g><g fill="none" color="#000" stroke="currentColor"><path stroke="#000" d="M507.3 428v-9m0-400.9v9"/><text transform="translate(507.3 449.9)" stroke="none" fill="#000" font-family="Arial" font-size="12" text-anchor="middle"><tspan>80</tspan></text></g><g fill="none" color="#000" stroke="currentColor"><path stroke="#000" d="M564 428v-9m0-400.9v9"/><text transform="translate(564 449.9)" stroke="none" fill="#000" font-family="Arial" font-size="12" text-anchor="middle"><tspan>90</tspan></text></g><path stroke="#000" d="M53.9 18.1V428H615V18.1H53.9z" fill="none" color="#000"/><text transform="translate(433.7 467.9)" stroke="none" fill="#000" font-family="Arial" font-size="12" text-anchor="end" color="#000"><tspan>pages+cached+noexternal+nofonts</tspan></text><path stroke="#9400D3" d="M442 464h42.2M53.9 290.2l5.7 27.9 5.6 77 5.7-84.9 5.7 100.9 5.6-179.3 5.7 155.8 5.7-156.1h5.6l5.7 41 5.7 124.9 5.6-23.2 5.7-137.8 5.7 48 5.6 113.3 5.7-9.8 5.7-238.7 5.7 208.1 5.6 49.4 5.7-308.3 5.7 289.2 5.6-80 5.7-11.9 5.7-23.8 5.6 106.7 5.7-106.7 5.7 19.2L206.9 26l5.7 372.6 5.7-139.5 5.6 65.1 5.7 50.3 5.7-130.5 5.6 162.7 5.7-97.6 5.7-95.9 5.6 197.9 5.7-263.9 5.7 236 5.6-94.8 5.7-11 5.7 28.8 5.6-94.8 5.7 149.7 5.7 26.5 5.6-125.3 5.7-104.1 5.7 52.1 5.6 35.4 5.7 172.7 5.7 1.7L343 280l5.6-108.7 5.7 35.5 5.7 202.6 5.6-60.2 5.7-89.5L377 289l5.6 93.9 5.7 11.3L394 294l5.6 70.3 5.7-57.2 5.7-58.5 5.6 42.5 5.7-56.7 5.7 48.5 5.6 79.4 5.7-40.1L445 289l5.6 14.9 5.7 52.9 5.7 31.1 5.6-124.7 5.7 120.9 5.7-71.8 5.6-58.4 5.7 34.8 5.7 92.5 5.6-145.4 5.7 180.8 5.7-63 5.6-116.6 5.7 154.1 5.7 11.3 5.7-156.7 5.6 107L547 389l5.7-208.7 5.6 217.7 5.7-36.3 5.7-213.1 5.6 244.2 5.7-115.4 5.7-70.9 5.6 193 5.7-73.6 5.7-168.5 5.6 235.7 5.7-62.8" fill="none" color="#000"/><text transform="translate(433.7 485.9)" stroke="none" fill="#000" font-family="Arial" font-size="12" text-anchor="end" color="#000"><tspan>pages+cached+noexternal+nosvg</tspan></text><path stroke="#009E73" d="M442 482h42.2M53.9 234.7l5.7-2.1 5.6 80 5.7-23.3 5.7-61.6 5.6 101.2 5.7-6.2 5.7 54.7L99.2 185l5.7 34.9 5.7 42.4 5.6 22.7 5.7-22.1 5.7 126.4 5.6 13.1 5.7-171.5 5.7 163.1 5.7-199.4 5.6 120.9 5.7-62.2 5.7-66.3 5.6 110.5 5.7-16.6 5.7-86.6 5.6 76.1 5.7-32.8 5.7-51.5 5.6 149.7 5.7 52.1 5.7-181.4 5.6 110.7 5.7 40.1 5.7-41.5 5.6 17.7 5.7-123.5 5.7 111.6 5.6-161.9 5.7 15.7 5.7 111.3 5.6-215.1 5.7 23.3 5.7 164.2 5.6 57.5 5.7-144.7 5.7 39.2 5.6 80.5 5.7-80.5 5.7 73.3 5.6-151.7 5.7 49.4 5.7 122.9 5.7-65.1 5.6-1.7 5.7-14.9 5.7 36.1 5.6-219.8 5.7 275.3 5.7-92.7 5.6-27.9 5.7 16.8 5.7 109.3 5.6-177.6 5.7 148.3 5.7-67.2 5.6 62.5 5.7 8.4 5.7-108.1 5.6 202 5.7.3 5.7-110.4 5.6 57.2 5.7-201.7 5.7 215.7 5.6-64.8 5.7-22.1 5.7 21.2 5.6-91 5.7 180.5 5.7-95.3 5.6 36.6 5.7-45.1 5.7-5.5 5.6 121.5 5.7-98.5 5.7 32 5.7 73.2 5.6-137.8 5.7 45.1 5.7-42.7 5.6-89.3 5.7 61.6 5.7 89 5.6-214.5 5.7 197.3 5.7 66.3 5.6-127.3 5.7 67.1 5.7 82.6 5.6 6.7 5.7-126.5" fill="none" color="#000"/><g fill="none" color="#000" stroke="currentColor"><path stroke="#000" d="M53.9 18.1V428H615V18.1H53.9z"/></g></svg>

<?xml version="1.0" encoding="utf-8"  standalone="no"?>
<svg 
 width="640" height="500"
 viewBox="0 0 640 500"
 xmlns="http://www.w3.org/2000/svg"
 xmlns:xlink="http://www.w3.org/1999/xlink"
>

<title>Gnuplot</title>
<desc>Produced by GNUPLOT 5.4 patchlevel 0 </desc>

<g id="gnuplot_canvas">

<rect x="0" y="0" width="640" height="500" fill="#ffffff"/>
<defs>

	<circle id='gpDot' r='0.5' stroke-width='0.5' stroke='currentColor'/>
	<path id='gpPt0' stroke-width='0.222' stroke='currentColor' d='M-1,0 h2 M0,-1 v2'/>
	<path id='gpPt1' stroke-width='0.222' stroke='currentColor' d='M-1,-1 L1,1 M1,-1 L-1,1'/>
	<path id='gpPt2' stroke-width='0.222' stroke='currentColor' d='M-1,0 L1,0 M0,-1 L0,1 M-1,-1 L1,1 M-1,1 L1,-1'/>
	<rect id='gpPt3' stroke-width='0.222' stroke='currentColor' x='-1' y='-1' width='2' height='2'/>
	<rect id='gpPt4' stroke-width='0.222' stroke='currentColor' fill='currentColor' x='-1' y='-1' width='2' height='2'/>
	<circle id='gpPt5' stroke-width='0.222' stroke='currentColor' cx='0' cy='0' r='1'/>
	<use xlink:href='#gpPt5' id='gpPt6' fill='currentColor' stroke='none'/>
	<path id='gpPt7' stroke-width='0.222' stroke='currentColor' d='M0,-1.33 L-1.33,0.67 L1.33,0.67 z'/>
	<use xlink:href='#gpPt7' id='gpPt8' fill='currentColor' stroke='none'/>
	<use xlink:href='#gpPt7' id='gpPt9' stroke='currentColor' transform='rotate(180)'/>
	<use xlink:href='#gpPt9' id='gpPt10' fill='currentColor' stroke='none'/>
	<use xlink:href='#gpPt3' id='gpPt11' stroke='currentColor' transform='rotate(45)'/>
	<use xlink:href='#gpPt11' id='gpPt12' fill='currentColor' stroke='none'/>
	<path id='gpPt13' stroke-width='0.222' stroke='currentColor' d='M0,1.330 L1.265,0.411 L0.782,-1.067 L-0.782,-1.076 L-1.265,0.411 z'/>
	<use xlink:href='#gpPt13' id='gpPt14' fill='currentColor' stroke='none'/>
	<filter id='textbox' filterUnits='objectBoundingBox' x='0' y='0' height='1' width='1'>
	  <feFlood flood-color='#FFFFFF' flood-opacity='1' result='bgnd'/>
	  <feComposite in='SourceGraphic' in2='bgnd' operator='atop'/>
	</filter>
	<filter id='greybox' filterUnits='objectBoundingBox' x='0' y='0' height='1' width='1'>
	  <feFlood flood-color='lightgrey' flood-opacity='1' result='grey'/>
	  <feComposite in='SourceGraphic' in2='grey' operator='atop'/>
	</filter>
</defs>
<g fill="none" color="#FFFFFF" stroke="black" stroke-width="1.00" stroke-linecap="butt" stroke-linejoin="miter">
</g>
<g fill="none" color="black" stroke="currentColor" stroke-width="1.00" stroke-linecap="butt" stroke-linejoin="miter">
	<path stroke='black'  d='M53.9,381.2 L62.9,381.2 M615.0,381.2 L606.0,381.2  '/>	<g transform="translate(45.6,385.1)" stroke="none" fill="black" font-family="Arial" font-size="12.00"  text-anchor="end">
		<text><tspan font-family="Arial" > 1.4</tspan></text>
	</g>
</g>
<g fill="none" color="black" stroke="currentColor" stroke-width="1.00" stroke-linecap="butt" stroke-linejoin="miter">
	<path stroke='black'  d='M53.9,323.0 L62.9,323.0 M615.0,323.0 L606.0,323.0  '/>	<g transform="translate(45.6,326.9)" stroke="none" fill="black" font-family="Arial" font-size="12.00"  text-anchor="end">
		<text><tspan font-family="Arial" > 1.6</tspan></text>
	</g>
</g>
<g fill="none" color="black" stroke="currentColor" stroke-width="1.00" stroke-linecap="butt" stroke-linejoin="miter">
	<path stroke='black'  d='M53.9,264.9 L62.9,264.9 M615.0,264.9 L606.0,264.9  '/>	<g transform="translate(45.6,268.8)" stroke="none" fill="black" font-family="Arial" font-size="12.00"  text-anchor="end">
		<text><tspan font-family="Arial" > 1.8</tspan></text>
	</g>
</g>
<g fill="none" color="black" stroke="currentColor" stroke-width="1.00" stroke-linecap="butt" stroke-linejoin="miter">
	<path stroke='black'  d='M53.9,206.8 L62.9,206.8 M615.0,206.8 L606.0,206.8  '/>	<g transform="translate(45.6,210.7)" stroke="none" fill="black" font-family="Arial" font-size="12.00"  text-anchor="end">
		<text><tspan font-family="Arial" > 2</tspan></text>
	</g>
</g>
<g fill="none" color="black" stroke="currentColor" stroke-width="1.00" stroke-linecap="butt" stroke-linejoin="miter">
	<path stroke='black'  d='M53.9,148.6 L62.9,148.6 M615.0,148.6 L606.0,148.6  '/>	<g transform="translate(45.6,152.5)" stroke="none" fill="black" font-family="Arial" font-size="12.00"  text-anchor="end">
		<text><tspan font-family="Arial" > 2.2</tspan></text>
	</g>
</g>
<g fill="none" color="black" stroke="currentColor" stroke-width="1.00" stroke-linecap="butt" stroke-linejoin="miter">
	<path stroke='black'  d='M53.9,90.5 L62.9,90.5 M615.0,90.5 L606.0,90.5  '/>	<g transform="translate(45.6,94.4)" stroke="none" fill="black" font-family="Arial" font-size="12.00"  text-anchor="end">
		<text><tspan font-family="Arial" > 2.4</tspan></text>
	</g>
</g>
<g fill="none" color="black" stroke="currentColor" stroke-width="1.00" stroke-linecap="butt" stroke-linejoin="miter">
	<path stroke='black'  d='M53.9,32.4 L62.9,32.4 M615.0,32.4 L606.0,32.4  '/>	<g transform="translate(45.6,36.3)" stroke="none" fill="black" font-family="Arial" font-size="12.00"  text-anchor="end">
		<text><tspan font-family="Arial" > 2.6</tspan></text>
	</g>
</g>
<g fill="none" color="black" stroke="currentColor" stroke-width="1.00" stroke-linecap="butt" stroke-linejoin="miter">
	<path stroke='black'  d='M53.9,428.0 L53.9,419.0 M53.9,18.1 L53.9,27.1  '/>	<g transform="translate(53.9,449.9)" stroke="none" fill="black" font-family="Arial" font-size="12.00"  text-anchor="middle">
		<text><tspan font-family="Arial" > 0</tspan></text>
	</g>
</g>
<g fill="none" color="black" stroke="currentColor" stroke-width="1.00" stroke-linecap="butt" stroke-linejoin="miter">
	<path stroke='black'  d='M110.6,428.0 L110.6,419.0 M110.6,18.1 L110.6,27.1  '/>	<g transform="translate(110.6,449.9)" stroke="none" fill="black" font-family="Arial" font-size="12.00"  text-anchor="middle">
		<text><tspan font-family="Arial" > 10</tspan></text>
	</g>
</g>
<g fill="none" color="black" stroke="currentColor" stroke-width="1.00" stroke-linecap="butt" stroke-linejoin="miter">
	<path stroke='black'  d='M167.3,428.0 L167.3,419.0 M167.3,18.1 L167.3,27.1  '/>	<g transform="translate(167.3,449.9)" stroke="none" fill="black" font-family="Arial" font-size="12.00"  text-anchor="middle">
		<text><tspan font-family="Arial" > 20</tspan></text>
	</g>
</g>
<g fill="none" color="black" stroke="currentColor" stroke-width="1.00" stroke-linecap="butt" stroke-linejoin="miter">
	<path stroke='black'  d='M223.9,428.0 L223.9,419.0 M223.9,18.1 L223.9,27.1  '/>	<g transform="translate(223.9,449.9)" stroke="none" fill="black" font-family="Arial" font-size="12.00"  text-anchor="middle">
		<text><tspan font-family="Arial" > 30</tspan></text>
	</g>
</g>
<g fill="none" color="black" stroke="currentColor" stroke-width="1.00" stroke-linecap="butt" stroke-linejoin="miter">
	<path stroke='black'  d='M280.6,428.0 L280.6,419.0 M280.6,18.1 L280.6,27.1  '/>	<g transform="translate(280.6,449.9)" stroke="none" fill="black" font-family="Arial" font-size="12.00"  text-anchor="middle">
		<text><tspan font-family="Arial" > 40</tspan></text>
	</g>
</g>
<g fill="none" color="black" stroke="currentColor" stroke-width="1.00" stroke-linecap="butt" stroke-linejoin="miter">
	<path stroke='black'  d='M337.3,428.0 L337.3,419.0 M337.3,18.1 L337.3,27.1  '/>	<g transform="translate(337.3,449.9)" stroke="none" fill="black" font-family="Arial" font-size="12.00"  text-anchor="middle">
		<text><tspan font-family="Arial" > 50</tspan></text>
	</g>
</g>
<g fill="none" color="black" stroke="currentColor" stroke-width="1.00" stroke-linecap="butt" stroke-linejoin="miter">
	<path stroke='black'  d='M394.0,428.0 L394.0,419.0 M394.0,18.1 L394.0,27.1  '/>	<g transform="translate(394.0,449.9)" stroke="none" fill="black" font-family="Arial" font-size="12.00"  text-anchor="middle">
		<text><tspan font-family="Arial" > 60</tspan></text>
	</g>
</g>
<g fill="none" color="black" stroke="currentColor" stroke-width="1.00" stroke-linecap="butt" stroke-linejoin="miter">
	<path stroke='black'  d='M450.6,428.0 L450.6,419.0 M450.6,18.1 L450.6,27.1  '/>	<g transform="translate(450.6,449.9)" stroke="none" fill="black" font-family="Arial" font-size="12.00"  text-anchor="middle">
		<text><tspan font-family="Arial" > 70</tspan></text>
	</g>
</g>
<g fill="none" color="black" stroke="currentColor" stroke-width="1.00" stroke-linecap="butt" stroke-linejoin="miter">
	<path stroke='black'  d='M507.3,428.0 L507.3,419.0 M507.3,18.1 L507.3,27.1  '/>	<g transform="translate(507.3,449.9)" stroke="none" fill="black" font-family="Arial" font-size="12.00"  text-anchor="middle">
		<text><tspan font-family="Arial" > 80</tspan></text>
	</g>
</g>
<g fill="none" color="black" stroke="currentColor" stroke-width="1.00" stroke-linecap="butt" stroke-linejoin="miter">
	<path stroke='black'  d='M564.0,428.0 L564.0,419.0 M564.0,18.1 L564.0,27.1  '/>	<g transform="translate(564.0,449.9)" stroke="none" fill="black" font-family="Arial" font-size="12.00"  text-anchor="middle">
		<text><tspan font-family="Arial" > 90</tspan></text>
	</g>
</g>
<g fill="none" color="black" stroke="currentColor" stroke-width="1.00" stroke-linecap="butt" stroke-linejoin="miter">
</g>
<g fill="none" color="black" stroke="currentColor" stroke-width="1.00" stroke-linecap="butt" stroke-linejoin="miter">
	<path stroke='black'  d='M53.9,18.1 L53.9,428.0 L615.0,428.0 L615.0,18.1 L53.9,18.1 Z  '/></g>
<g fill="none" color="black" stroke="currentColor" stroke-width="1.00" stroke-linecap="butt" stroke-linejoin="miter">
</g>
	<g id="gnuplot_plot_1" ><title>pages+cached+noexternal+nofonts</title>
<g fill="none" color="black" stroke="currentColor" stroke-width="1.00" stroke-linecap="butt" stroke-linejoin="miter">
	<g transform="translate(433.7,467.9)" stroke="none" fill="black" font-family="Arial" font-size="12.00"  text-anchor="end">
		<text><tspan font-family="Arial" >pages+cached+noexternal+nofonts</tspan></text>
	</g>
</g>
<g fill="none" color="black" stroke="currentColor" stroke-width="1.00" stroke-linecap="butt" stroke-linejoin="miter">
	<path stroke='rgb(148,   0, 211)'  d='M442.0,464.0 L484.2,464.0 M53.9,290.2 L59.6,318.1 L65.2,395.1 L70.9,310.2 L76.6,411.1 L82.2,231.8
		L87.9,387.6 L93.6,231.5 L99.2,231.5 L104.9,272.5 L110.6,397.4 L116.2,374.2 L121.9,236.4 L127.6,284.4
		L133.2,397.7 L138.9,387.9 L144.6,149.2 L150.3,357.3 L155.9,406.7 L161.6,98.4 L167.3,387.6 L172.9,307.6
		L178.6,295.7 L184.3,271.9 L189.9,378.6 L195.6,271.9 L201.3,291.1 L206.9,26.0 L212.6,398.6 L218.3,259.1
		L223.9,324.2 L229.6,374.5 L235.3,244.0 L240.9,406.7 L246.6,309.1 L252.3,213.2 L257.9,411.1 L263.6,147.2
		L269.3,383.2 L274.9,288.4 L280.6,277.4 L286.3,306.2 L291.9,211.4 L297.6,361.1 L303.3,387.6 L308.9,262.3
		L314.6,158.2 L320.3,210.3 L325.9,245.7 L331.6,418.4 L337.3,420.1 L343.0,280.0 L348.6,171.3 L354.3,206.8
		L360.0,409.4 L365.6,349.2 L371.3,259.7 L377.0,289.0 L382.6,382.9 L388.3,394.2 L394.0,294.0 L399.6,364.3
		L405.3,307.1 L411.0,248.6 L416.6,291.1 L422.3,234.4 L428.0,282.9 L433.6,362.3 L439.3,322.2 L445.0,289.0
		L450.6,303.9 L456.3,356.8 L462.0,387.9 L467.6,263.2 L473.3,384.1 L479.0,312.3 L484.6,253.9 L490.3,288.7
		L496.0,381.2 L501.6,235.8 L507.3,416.6 L513.0,353.6 L518.6,237.0 L524.3,391.1 L530.0,402.4 L535.7,245.7
		L541.3,352.7 L547.0,389.0 L552.7,180.3 L558.3,398.0 L564.0,361.7 L569.7,148.6 L575.3,392.8 L581.0,277.4
		L586.7,206.5 L592.3,399.5 L598.0,325.9 L603.7,157.4 L609.3,393.1 L615.0,330.3  '/></g>
	</g>
	<g id="gnuplot_plot_2" ><title>pages+cached+noexternal+nosvg</title>
<g fill="none" color="black" stroke="currentColor" stroke-width="1.00" stroke-linecap="butt" stroke-linejoin="miter">
	<g transform="translate(433.7,485.9)" stroke="none" fill="black" font-family="Arial" font-size="12.00"  text-anchor="end">
		<text><tspan font-family="Arial" >pages+cached+noexternal+nosvg</tspan></text>
	</g>
</g>
<g fill="none" color="black" stroke="currentColor" stroke-width="1.00" stroke-linecap="butt" stroke-linejoin="miter">
	<path stroke='rgb(  0, 158, 115)'  d='M442.0,482.0 L484.2,482.0 M53.9,234.7 L59.6,232.6 L65.2,312.6 L70.9,289.3 L76.6,227.7 L82.2,328.9
		L87.9,322.7 L93.6,377.4 L99.2,185.0 L104.9,219.9 L110.6,262.3 L116.2,285.0 L121.9,262.9 L127.6,389.3
		L133.2,402.4 L138.9,230.9 L144.6,394.0 L150.3,194.6 L155.9,315.5 L161.6,253.3 L167.3,187.0 L172.9,297.5
		L178.6,280.9 L184.3,194.3 L189.9,270.4 L195.6,237.6 L201.3,186.1 L206.9,335.8 L212.6,387.9 L218.3,206.5
		L223.9,317.2 L229.6,357.3 L235.3,315.8 L240.9,333.5 L246.6,210.0 L252.3,321.6 L257.9,159.7 L263.6,175.4
		L269.3,286.7 L274.9,71.6 L280.6,94.9 L286.3,259.1 L291.9,316.6 L297.6,171.9 L303.3,211.1 L308.9,291.6
		L314.6,211.1 L320.3,284.4 L325.9,132.7 L331.6,182.1 L337.3,305.0 L343.0,239.9 L348.6,238.2 L354.3,223.3
		L360.0,259.4 L365.6,39.6 L371.3,314.9 L377.0,222.2 L382.6,194.3 L388.3,211.1 L394.0,320.4 L399.6,142.8
		L405.3,291.1 L411.0,223.9 L416.6,286.4 L422.3,294.8 L428.0,186.7 L433.6,388.7 L439.3,389.0 L445.0,278.6
		L450.6,335.8 L456.3,134.1 L462.0,349.8 L467.6,285.0 L473.3,262.9 L479.0,284.1 L484.6,193.1 L490.3,373.6
		L496.0,278.3 L501.6,314.9 L507.3,269.8 L513.0,264.3 L518.6,385.8 L524.3,287.3 L530.0,319.3 L535.7,392.5
		L541.3,254.7 L547.0,299.8 L552.7,257.1 L558.3,167.8 L564.0,229.4 L569.7,318.4 L575.3,103.9 L581.0,301.2
		L586.7,367.5 L592.3,240.2 L598.0,307.3 L603.7,389.9 L609.3,396.6 L615.0,270.1  '/></g>
	</g>
<g fill="none" color="#FFFFFF" stroke="rgb(  0, 158, 115)" stroke-width="2.00" stroke-linecap="butt" stroke-linejoin="miter">
</g>
<g fill="none" color="black" stroke="currentColor" stroke-width="2.00" stroke-linecap="butt" stroke-linejoin="miter">
</g>
<g fill="none" color="black" stroke="black" stroke-width="1.00" stroke-linecap="butt" stroke-linejoin="miter">
</g>
<g fill="none" color="black" stroke="currentColor" stroke-width="1.00" stroke-linecap="butt" stroke-linejoin="miter">
	<path stroke='black'  d='M53.9,18.1 L53.9,428.0 L615.0,428.0 L615.0,18.1 L53.9,18.1 Z  '/></g>
<g fill="none" color="black" stroke="currentColor" stroke-width="1.00" stroke-linecap="butt" stroke-linejoin="miter">
</g>
</g>
</svg>
